prototype/04-socket-without-vite/public/assets/img/dance_calm.svg

<svg width="214" height="75" viewBox="0 0 214 75" fill="none" xmlns="http://www.w3.org/2000/svg">
<path opacity="0.5" d="M0 1C17.379 1 25.421 13.1667 42.8 13.1667C60.179 13.1667 68.221 1 85.6 1C102.979 1 111.021 13.1667 128.4 13.1667C145.779 13.1667 153.821 1 171.2 1C188.579 1 196.621 13.1667 214 13.1667M0 49.6667C17.379 49.6667 25.421 61.8333 42.8 61.8333C60.179 61.8333 68.221 49.6667 85.6 49.6667C102.979 49.6667 111.021 61.8333 128.4 61.8333C145.779 61.8333 153.821 49.6667 171.2 49.6667C188.579 49.6667 196.621 61.8333 214 61.8333M0 13.1667C17.379 13.1667 25.421 25.3333 42.8 25.3333C60.179 25.3333 68.221 13.1667 85.6 13.1667C102.979 13.1667 111.021 25.3333 128.4 25.3333C145.779 25.3333 153.821 13.1667 171.2 13.1667C188.579 13.1667 196.621 25.3333 214 25.3333M0 61.8333C17.379 61.8333 25.421 74 42.8 74C60.179 74 68.221 61.8333 85.6 61.8333C102.979 61.8333 111.021 74 128.4 74C145.779 74 153.821 61.8333 171.2 61.8333C188.579 61.8333 196.621 74 214 74M0 25.3333C17.379 25.3333 25.421 37.5 42.8 37.5C60.179 37.5 68.221 25.3333 85.6 25.3333C102.979 25.3333 111.021 37.5 128.4 37.5C145.779 37.5 153.821 25.3333 171.2 25.3333C188.579 25.3333 196.621 37.5 214 37.5M0 37.5C17.379 37.5 25.421 49.6667 42.8 49.6667C60.179 49.6667 68.221 37.5 85.6 37.5C102.979 37.5 111.021 49.6667 128.4 49.6667C145.779 49.6667 153.821 37.5 171.2 37.5C188.579 37.5 196.621 49.6667 214 49.6667" stroke="#76BA53"/>
</svg>

<svg fill="none" viewBox="0 0 214 75" xmlns="http://www.w3.org/2000/svg">
<path d="m0 1c17.379 0 25.421 12.167 42.8 12.167s25.421-12.167 42.8-12.167 25.421 12.167 42.8 12.167 25.421-12.167 42.8-12.167 25.421 12.167 42.8 12.167m-214 36.5c17.379 0 25.421 12.167 42.8 12.167s25.421-12.167 42.8-12.167 25.421 12.167 42.8 12.167 25.421-12.167 42.8-12.167 25.421 12.167 42.8 12.167m-214-48.667c17.379 0 25.421 12.167 42.8 12.167s25.421-12.167 42.8-12.167 25.421 12.167 42.8 12.167 25.421-12.167 42.8-12.167 25.421 12.167 42.8 12.167m-214 36.5c17.379 0 25.421 12.167 42.8 12.167s25.421-12.167 42.8-12.167 25.421 12.167 42.8 12.167 25.421-12.167 42.8-12.167 25.421 12.167 42.8 12.167m-214-48.667c17.379 0 25.421 12.167 42.8 12.167s25.421-12.167 42.8-12.167 25.421 12.167 42.8 12.167 25.421-12.167 42.8-12.167 25.421 12.167 42.8 12.167m-214 0c17.379 0 25.421 12.167 42.8 12.167s25.421-12.167 42.8-12.167 25.421 12.167 42.8 12.167 25.421-12.167 42.8-12.167 25.421 12.167 42.8 12.167" opacity=".5" stroke="#76BA53"/>
</svg>
